assets/svg/new-arrival.svg

<?xml version="1.0" encoding="UTF-8"?>
<svg width="1000px" height="1000px" viewBox="0 0 1000 1000" version="1.1" xmlns="http://www.w3.org/2000/svg" xmlns:xlink="http://www.w3.org/1999/xlink">
    <!-- Generator: sketchtool 52.4 (67378) - http://www.bohemiancoding.com/sketch -->
    <title>new-arrival</title>
    <desc>Created with sketchtool.</desc>
    <g id="新版图标" stroke="none" stroke-width="1" fill="none" fill-rule="evenodd">
        <g id="new-arrival" fill="#323233" fill-rule="nonzero">
            <g id="圆角-新品-线">
                <path d="M222.222222,55.5555556 L777.777778,55.5555556 C808.460264,55.5555556 833.333333,80.428625 833.333333,111.111111 L833.333333,888.632709 C833.333333,919.315195 808.460264,944.188264 777.777778,944.188264 C768.853791,944.188264 760.061127,942.038491 752.143883,937.920873 L525.633895,820.11707 C509.566201,811.760549 490.433799,811.760549 474.366105,820.11707 L247.856117,937.920873 C220.635016,952.078083 187.091267,941.487706 172.934058,914.266604 C168.81644,906.349359 166.666667,897.556695 166.666667,888.632709 L166.666667,111.111111 C166.666667,80.428625 191.539736,55.5555556 222.222222,55.5555556 Z M609.559367,168.230913 C582.337144,178.786468 551.781589,184.342024 517.337144,184.897579 L517.337144,305.453135 C516.226033,346.286468 507.614922,378.230913 492.059367,401.286468 L512.8927,423.230913 C533.170478,393.786468 544.003811,354.619801 545.3927,305.453135 L545.3927,279.064246 L575.3927,279.064246 L575.3927,423.786468 L604.003811,423.786468 L604.003811,279.064246 L629.559367,279.064246 L629.559367,251.564246 L545.3927,251.564246 L545.3927,208.50869 C574.003811,206.842024 600.114922,202.119801 623.726033,194.342024 L609.559367,168.230913 Z M377.614922,187.675357 L377.614922,214.342024 L505.114922,214.342024 L505.114922,187.675357 L454.559367,187.675357 C451.226033,178.786468 448.170478,170.730913 444.837144,163.50869 L414.837144,168.50869 C418.726033,174.342024 422.337144,180.730913 425.670478,187.675357 L377.614922,187.675357 Z M374.837144,250.730913 L374.837144,277.119801 L427.614922,277.119801 L427.614922,299.619801 L379.281589,299.619801 L379.281589,326.00869 L427.614922,326.00869 L427.614922,391.842024 C427.614922,397.119801 424.281589,399.897579 418.170478,399.897579 C414.837144,399.897579 410.948256,399.064246 406.781589,397.953135 L413.170478,424.619801 L427.614922,424.619801 C446.781589,424.619801 456.503811,416.00869 456.503811,398.786468 L456.503811,326.00869 L502.059367,326.00869 L502.059367,299.619801 L456.503811,299.619801 L456.503811,277.119801 L506.781589,277.119801 L506.781589,250.730913 L479.837144,250.730913 C483.448256,242.675357 486.781589,234.064246 490.114922,224.619801 L464.281589,215.453135 C461.226033,227.675357 457.614922,239.342024 453.448256,250.730913 L429.003811,250.730913 C425.114922,237.119801 421.226033,225.453135 417.059367,215.453135 L391.503811,225.175357 C395.948256,232.953135 399.837144,241.564246 403.170478,250.730913 L374.837144,250.730913 Z M394.837144,336.842024 C390.114922,359.342024 381.781589,380.730913 369.837144,400.730913 L394.003811,416.00869 C405.670478,395.175357 414.559367,370.730913 420.948256,342.397579 L394.837144,336.842024 Z M484.837144,335.175357 L460.948256,341.564246 C467.059367,357.953135 472.337144,374.897579 476.503811,392.119801 L500.948256,382.675357 C497.059367,368.230913 491.503811,352.397579 484.837144,335.175357 Z M420.948256,480.730913 L420.948256,579.897579 L580.670478,579.897579 L580.670478,480.730913 L420.948256,480.730913 Z M551.503811,552.675357 L450.114922,552.675357 L450.114922,507.953135 L551.503811,507.953135 L551.503811,552.675357 Z M488.170478,598.230913 L383.448256,598.230913 L383.448256,724.897579 L411.781589,724.897579 L411.781589,711.842024 L460.114922,711.842024 L460.114922,724.897579 L488.170478,724.897579 L488.170478,598.230913 Z M411.781589,684.897579 L411.781589,625.453135 L460.114922,625.453135 L460.114922,684.897579 L411.781589,684.897579 Z M617.8927,598.230913 L509.837144,598.230913 L509.837144,724.897579 L538.170478,724.897579 L538.170478,711.842024 L589.003811,711.842024 L589.003811,724.897579 L617.8927,724.897579 L617.8927,598.230913 Z M538.170478,684.897579 L538.170478,625.453135 L589.003811,625.453135 L589.003811,684.897579 L538.170478,684.897579 Z" id="Rectangle-18"></path>
            </g>
        </g>
    </g>
</svg>

<svg width="1000" height="1000" xmlns="http://www.w3.org/2000/svg"><path d="M222.222 55.556h555.556c30.682 0 55.555 24.873 55.555 55.555v777.522c0 30.682-24.873 55.555-55.555 55.555a55.556 55.556 0 0 1-25.634-6.267l-226.51-117.804a55.556 55.556 0 0 0-51.268 0l-226.51 117.804c-27.221 14.157-60.765 3.567-74.922-23.654a55.556 55.556 0 0 1-6.267-25.634V111.11c0-30.682 24.873-55.555 55.555-55.555zM609.56 168.23c-27.222 10.555-57.777 16.111-92.222 16.667v120.555c-1.111 40.833-9.722 72.778-25.278 95.833l20.834 21.945c20.277-29.445 31.11-68.611 32.5-117.778v-26.389h30v144.722h28.61V279.064h25.556v-27.5h-84.166V208.51c28.61-1.667 54.722-6.39 78.333-14.167l-14.167-26.111zm-231.944 19.444v26.667h127.5v-26.667h-50.556c-3.333-8.889-6.389-16.944-9.722-24.166l-30 5c3.889 5.833 7.5 12.222 10.833 19.166h-48.055zm-2.778 63.056v26.389h52.778v22.5h-48.333v26.389h48.333v65.833c0 5.278-3.333 8.056-9.445 8.056-3.333 0-7.222-.834-11.388-1.945l6.388 26.667h14.445c19.167 0 28.889-8.611 28.889-25.834V326.01h45.555v-26.39h-45.555v-22.5h50.278v-26.388h-26.945c3.611-8.056 6.945-16.667 10.278-26.111l-25.833-9.167a347.6 347.6 0 0 1-10.834 35.278h-24.444c-3.89-13.611-7.778-25.278-11.945-35.278l-25.555 9.722c4.444 7.778 8.333 16.39 11.666 25.556h-28.333zm20 86.111c-4.722 22.5-13.055 43.889-25 63.889l24.167 15.278c11.666-20.834 20.555-45.278 26.944-73.611l-26.11-5.556zm90-1.667l-23.889 6.39c6.111 16.388 11.39 33.333 15.556 50.555l24.444-9.445c-3.889-14.444-9.444-30.277-16.11-47.5zm-63.889 145.556v99.167H580.67V480.73H420.948zm130.556 71.944h-101.39v-44.722h101.39v44.722zm-63.334 45.556H383.448v126.667h28.334v-13.056h48.333v13.056h28.055V598.23zm-76.388 86.667v-59.445h48.333v59.445h-48.333zm206.11-86.667H509.838v126.667h28.333v-13.056h50.834v13.056h28.889V598.23zm-79.722 86.667v-59.445h50.834v59.445H538.17z" fill="#323233" fill-rule="nonzero"/></svg>
